X:1
T:60 Lessons for 2 Guitars, Op.168 - Joseph Küffner (1776 - 1856)
T:Leçon No.51
T:60 Lessons for 2 Guitars, Op.168 "à l'usage des commençants"
T:Joseph Küffner (1776 - 1856)
%%score { ( 1 2 ) ( 3 4 ) }
L:1/8
Q:1/4=120
M:3/4
K:A
V:1 treble-8 nm="Classical Guitar"
V:2 treble-8 
V:3 treble-8 nm="Guitare classique"
V:4 treble-8 
V:1
"_" z"^Ländler" ec'ec'e | [ec']7/2 [db]/ [db]2 | z dbdbd | [db]7/2 [ca]/ [ca]2 | z ec'ec'e | %5
 z cacac | z BdgBd | A,2 [cea]2 z2 :: %8
"_" !arpeggio![E,Bde]2 !arpeggio![E,^Ace]2 !arpeggio![E,Bde]2 | [=Ace]2 (!>!fe) e2 | %10
 [Bde]2 (!>!ag) g2 | [ce]2 (!>!ba) a2 | !arpeggio![E,Bde]2 !arpeggio![E,^Ace]2 !arpeggio![E,Bde]2 | %13
 [=Ace]2 (!>!fe) e2 | [Bde]2 (!>!ag) g2 | A,2 [cea]2 z2 :| %16
V:2
 A,4 z2 | E,6 | E,4 z2 | A,6 | A,4 z2 | A,6 | E,6 | x6 :: x6 | A,4 z2 | E,4 z2 | A,4 z2 | x6 | %13
 A,4 z2 | E,4 z2 | x6 :| %16
V:3
"_" z2 [Ace]2 [Ace]2 | z BdB !>!e2 | z2 [Bde]2 [Bde]2 | z AcA !>!e2 | z2 [Ace]2 [Ace]2 | %5
 z2 [Ace]2 [Ace]2 | z2 [Gde]2 [Gde]2 | A,2 [Ace]2 z2 :: %8
"_" !arpeggio![E,EGB]2 z2 !arpeggio![E,EGB]2 | z2 [EAc]2 [EAc]2 | z2 [EGd]2 [EGd]2 | %11
 z2 [EAc]2 [EAc]2 | !arpeggio![E,GBe]2 z2 !arpeggio![E,GBe]2 | z2 [Ace]2 [Ace]2 | %14
 z2 [Gde]2 [Gde]2 | A,2 [Ace]2 z2 :| %16
V:4
 A,6 | E,6 | E,6 | A,6 | A,6 | A,6 | E,6 | x6 :: x6 | A,6 | E,6 | A,6 | x6 | A,6 | E,6 | x6 :| %16

